!!!!SEGMENT: pl-wn--sd-xvi-o-232_anonim--kancjonal-zamoyskich-piesn-nowa-o-nawroceniu-grzesznego-czlowieka-pomozysz-mi-z-grzechu-mego.krn
!!!cenid: 15xx:790
!!!COM: Anonim
!!!COM-rismid: pe30004985
!!!CDT:
!!!CNT:
!!!GTL: Kancjonał Zamoyskich
!!!OTL: Pieśń nowa o nawróceniu grzesznego człowieka/Pomożysz mi z grzechu mego
!!!PDT: 1558
!!!AGN:
!!!SMS-siglum: PL-Wn
!!!SMS-shelfmark: SD XVI.O.232
!!!SMS-shelfwork: G
!!!SMS-variant:
!!!SMS-altvar:
!!!NIFC-rismid: 990072132
!!!URL-scan: https://polona.pl/item/piesn-nowa-o-nawroceniu-grzessnego-czlowieka-ku-panu-bogu-druga-piesn-o-smierci-o,MTE3MDE0OQ/3/#info:metadata
!!!ONB-nifc: UWAGA: proszę zapisywać tylko teksty występujące bezpośrednio pod nutami
!!!AIN: 1 tenor
!!!key: d
**kern	**text
*I"TENOR.	*
*I'T	*
*Itenor	*
*ICvox	*
*clefC4	*
*k[b-]	*
*d:	*
*M2/1	*
*met(C|)	*
=1-	=1-
2A/	Po-
2A/	-mo-
1c	-żyſʒ
=2-	=2-
1d	mi
2e#X\	ʒ_grʒe-
2d\	-chu
=3-	=3-
1c	me-
1A	-go/
*custos:c	*
!LO:LB:g=original	!
=4-	=4-
2c\	Mo-
2c\	-cny
2B-\	mi-
2A/	-ły
=5-	=5-
1G	Bo-
1F	-że/
=6-	=6-
2A/	po-
2A/	-mo-
1c	-żyſʒ
*custos:c	*
!LO:LB:g=original	!
=7-	=7-
1A	mi
2c\	ʒ_nie-
2B-\	-go
=8-	=8-
1G	wy-
1D	-brnąć/
=9-	=9-
2A/	nie-
2A/	-day
2G/	w_nim
2F/	ʒa-
*custos:D	*
!LO:LB:g=original	!
=10-	=10-
1D	-gi-
1C	-nąć/
=11-	=11-
2F/	wyʒ-
2G/	-wol
1A	mie
=12-	=12-
1c	ʒ_mo-
2B-\	-cy
2A\	dyia-
=13-	=13-
2.F/	-bel-
4G/	.
*custos:A	*
!LO:LB:g=original	!
1A	-ſkiey/
=14-	=14-
2G/	w_kto-
2F/	-rąm
2E/	wpadł
2D/	wʒgar-
=15-	=15-
2F/	-dʒe-
2G/	-nie
1E	ráy-
=16-	=16-
0Dl	-ſkie.
==	==
*-	*-
!!!RDF**kern: l = terminal long
!!!ENC: Berenika Jozajtis
!!!END: 2022-04-19
!!!ENC: Andrzej Kubiczek
!!!END: 2022-05-04
